X:5936
T:Sellenger's Round
O:england
M:6/8
L:1/8
B:The Round Band Book of Playford
K:C
"G"G3 G>AB | "C"c3 c>de | "F"d2c "G"B>AB | "C"c6 | \
"G"G2G G>AB | "C" c3 "Am"c>de | "Dm"d2c "G"B>AB | "C" c3-c2 |: \
d | "Am"e3 e>dc | "Dm"d3 d2d | "G"B>cd d>cB | "D"A3 d2B | \
"C"c>dc "G"B2G | "D7"A>Bc "G"B2G | "C"A2G "D7"^FEF | "G"G3-G2 :|


